X:94
T:Old Court, The
R:hornpipe
C:Jackie Daly
Z:id:hn-hornpipe-94
M:C|
K:Em
EF|G2GA BcBG|ABAF D2EF|GFEG FEDF|EDCD B,2EF|
G2GA BcBG|ABAF D2EF|GFEB AGFG|E2ED E2:|
|:EF|G2GA BAB^c|dedB A2GA|BA (3B^cd edBA|B2e2 e2ed|
^cBcd edBG|ABAF D2EF|GFEB AGFG|E2ED E2:|
<end>
<start>
